X:7
T:La balayeuse
R:Farandole
O:Alsace - Elsass
A:Kochersberg
S:
B:La tradition Alsacienne.
Z:transcription (partition) : <anamnese@laposte.net>
N:p.25
N:
M:2/4
L:1/8
Q:1/4=120
K:F
c | (c2A)c | (c2A)c | BB GG | F2 zA | GGGG | A>B cA |
GGGG | A>B cc | (c2A)c | (c2A)c | BB GG | F zz ||
W:De Kehrs, de Kehrs, die Madle gehn jetz heim. 
W:Denn was so bravi Madle sin, die sette schun lang d'heime sin. 
W:De Kehrs, de Kehrs, die Madle gehn jetz heim.
